X:1
T:11. Air
T:Pursue thy conquest, Love
%%score 1 2 { ( 3 4 ) 5 }
L:1/8
Q:1/4=100
M:4/4
K:C
V:1 treble nm="Belinda"
V:2 bass nm="Vcl"
V:3 treble nm="Cembalo, Harpsichord"
V:4 treble 
V:5 bass nm="Cembalo,"
V:1
 z2 z c |: c G c3/2 c/ e2 z c | c G c3/2 c/ e2 z c | B G B/c/B/c/ d2 z d | e d e d z2 z d |1 %5
w: Pur-|sue thy con- quest, Love, Pur-|sue thy con- quest, Love, Pur-|sue, pur sue, _ _ _ _ Pur-|sue thy con- quest, Pur-|
 e d/e/ f/e/ d/c/ c2 z c :|2 e d/e/ f/e/ d/c/ c2 z G || E E E ^F G2 z c | A A A B c G A/G/ F/E/ | %9
w: sue thy _ con- * quest, _ Love. Pur\-|sue thy _ con- * quest, _ Love. Her|eyes con- fess the flame, her|eyes con- fess the flame her tongue _ de- *|
 D2 z d B B B c | d2 z e c c c d | ef/e/ d/c/B/A/ ^G A/B/ c/B/ A | A2 z c c G c3/2 c/ | %13
w: nies, her eyes con- fess the|flame, her eyes con- fess the|flame _ _ _ _ _ _ _ her _ tongue _ de-|nies. Pur- sue thy con- quest,|
 e2 z c c G c3/2 c/ | e2 z c B G B/c/B/c/ | d2 z d e d e d | z2 z d e d/e/ f/e/ d/c/ | %17
w: Love Pur- sue thy con- quest,|Love, Pur- sue, pur- sue, _ _ _|_ Put- sue thy con- quest,|Pur- sue thy _ con- * quest, _|
 c2 z d e d/e/ f/e/ d/c/ | c6 z2 | z8 |] %20
w: Love, Pur- sue thy _ con- * quest, _|Love.||
V:2
 G,F,E,D, |: C,2 z C, C,G,,C,C, | C,2 z C, C,G,,C,E, | G,2 z G, G,D,G,B, | C3 G, A,G, A,G,/F,/ |1 %5
 E,F,G,G,, C,4 :|2 E,F,G,G,, C,4- || C,2 z C, B,,B,,B,,C, | D,2 z G, E,E,E,F, | %9
 G,B,,D,D,, G,,2 z G, | ^F,F,F,^G, A,2 A,,B,, | C,C,C,D, E,F,D,E, | A,,2 z2 z4 | %13
 C,G,,C,C, E,2 z C, | C,G,,C,E, G,2 z G, | G,D,G,B, C3 G, | A,G, A,G,/F,/ E,F,G,G,, | %17
 C,G,CB, A,F,G,G,, | C,D,E,C, F,D,G,G,, | C,4 z4 |] %20
V:3
 [GB]2 c2 |: [Ec]2 z [EG] [EG][CE]/[DF]/ c2- | [Ec]2 z [EG] [EG][CE]/[DF]/ G2- | %3
 G2 z G [GB]/[Ac]/[GB]/[Ac]/ d2 | cG/G/ cB AE/E/ AB |1 %5
 c!arpeggio![DAc]!arpeggio![DGc]!arpeggio![DGB] [EGc]E/F/ [EG]2 :|2 %6
 c!arpeggio![DAc]!arpeggio![DGc]!arpeggio![DGB] [EGc]G/F/ [CE]2 || [CE]2 z D G/D/G/^F/ GE | %8
 [DF]2 z D G>F EE/D/ | B,/C/D/E/ ^F/G/A/G/ G2 z G | A/D/A/B/ A/c/B/d/ c/B/A/^G/ A/G/A/G/ | %11
 A/^G/A/c/ B/A/G/A/ EF/F/ D/D/E | A,c/d/ B/c/A/B/ G/A/F/G/ E[EG] | [EG][CE]/[DF]/ G2- G2 z [EG] | %14
 [EG]G/F/ E/F/G/[FA]/ [GB]/[Ac]/[Bd] z G/A/ | B/c/d/c/ B/A/G/F/ EG/G/ c2 | z G/G/ cB/A/ GccB | %17
 cG/F/ EG c/B/A DF/E/ | Ec/B/ A/G/F/E/ G/A/G/F/ A/D/F/B/ | c4 z4 |] %20
V:4
 x2 GF |: x6 E>E | x6 E>E | B,2 x4 BG | x8 |1 x8 :|2 x8 || x8 | x8 | x8 | x8 | x8 | x8 | %13
 x2 E>E C2 x2 | x8 | x8 | x8 | x8 | x8 | x8 |] %20
V:5
 G,F,E,D, |: C,2 z C, C,G,,C,C, | C,2 z C, C,G,,C,E, | G,2 z G, G,D,G,B, | C3 G, A,G, A,G,/F,/ |1 %5
 E,F,G,G,, C,4 :|2 E,F,G,G,, C,4- || C,2 z C, B,,B,,B,,C, | D,2 z G, E,E,E,F, | %9
 G,B,,D,D,, G,,2 z G, | ^F,F,F,^G, A,2 A,,B,, | C,C,C,D, E,F,D,E, | A,,A,G,F, E,D,C,C, | %13
 C,G,,C,C, E,2 z C, | C,G,,C,E, G,2 z G, | G,D,G,B, C3 G, | A,G, A,G,/F,/ E,F,G,G,, | %17
 C,G,CB, A,F,G,G,, | C,D,E,C, F,D,G,G,, | C,4 z4 |] %20

